svgs/regular/square-3.svg

<svg xmlns="http://www.w3.org/2000/svg" viewBox="0 0 448 512"><!-- Font Awesome Pro 6.0.0-alpha2 by @fontawesome - https://fontawesome.com License - https://fontawesome.com/license (Commercial License) --><path d="M384 32H64C28.654 32 0 60.654 0 96V416C0 451.346 28.654 480 64 480H384C419.346 480 448 451.346 448 416V96C448 60.654 419.346 32 384 32ZM400 416C400 424.822 392.822 432 384 432H64C55.178 432 48 424.822 48 416V96C48 87.178 55.178 80 64 80H384C392.822 80 400 87.178 400 96V416ZM245.156 216.5L296.219 169.688C303.516 163 305.953 152.531 302.375 143.312C298.781 134.062 289.891 128 280 128H152C138.75 128 128 138.75 128 152S138.75 176 152 176H218.297L167.781 222.312C160.484 229 158.047 239.469 161.625 248.688C165.219 257.938 174.109 264 184 264H236C255.844 264 272 280.156 272 300S255.844 336 236 336H191.359C183.813 336 177.156 331.188 174.766 324.031C170.594 311.469 157 304.781 144.422 308.844C131.844 313.031 125.047 326.625 129.234 339.219C138.156 366 163.125 384 191.359 384H236C282.312 384 320 346.312 320 300C320 256.781 287.188 221.062 245.156 216.5Z"/></svg>

<svg xmlns="http://www.w3.org/2000/svg" viewBox="0 0 448 512"><!--! Font Awesome Pro 6.0.0-alpha3 by @fontawesome - https://fontawesome.com License - https://fontawesome.com/license (Commercial License) --><path d="M384 32H64C28.65 32 0 60.65 0 96v320c0 35.35 28.65 64 64 64h320c35.35 0 64-28.65 64-64V96C448 60.65 419.3 32 384 32zM400 416c0 8.822-7.178 16-16 16H64c-8.822 0-16-7.178-16-16V96c0-8.822 7.178-16 16-16h320c8.822 0 16 7.178 16 16V416zM245.2 216.5l51.06-46.81c7.297-6.688 9.734-17.16 6.156-26.38C298.8 134.1 289.9 128 280 128h-128C138.8 128 128 138.8 128 152S138.8 176 152 176h66.3L167.8 222.3C160.5 229 158 239.5 161.6 248.7C165.2 257.9 174.1 264 184 264h52c19.84 0 36 16.16 36 36S255.8 336 236 336H191.4c-7.547 0-14.2-4.812-16.59-11.97C170.6 311.5 157 304.8 144.4 308.8c-12.58 4.188-19.38 17.78-15.19 30.38C138.2 366 163.1 384 191.4 384H236C282.3 384 320 346.3 320 300C320 256.8 287.2 221.1 245.2 216.5z"/></svg>
